X: 1
T: Honorable Mrs Maule's
M: 4/4
L: 1/8
R: reel
K: Amaj
g|a2ed cAec|Bcde fBbg|a2ed cAec|dfed c/A/A2:|
e|c/B/AEA cAec|Bcde fBed|c/B/AEA cAec|dfed c/A/A2 e|cAEA cAec|
Bcde fBed|cdec defb|afed cAA||
